X: 38939
T: Susan MacLeod
R: strathspey
M: 4/4
K: Amajor
e>f e>d ~d<c ~c>B|A>B ~c<A c<e e2|f>g ~f>e f<a a>f|e>f ~e>c ~f2 a>f|
e>f e>d ~d<c ~c>B|A>B ~c<A c<e e>f|~a>e f/g/a ~e>a ~d<a|~c>a ~B<a A>A A||
c|~e2 e>f c<e e>c|A>B ~c<A c<e ~c<A|f2 ~f>e d<f f>g|~a>e f/g/a ~e>a ~c<a|
f/e/c e>f c<e e>c|A>B ~c<A c<e ~c<A|~a>e f/g/a ~e>a ~d<a|~c>a ~B<a A>A A||
f|e>A ~A2 ~A2 ~c<A|~c<A ~A2 c<e e<a|f>B B<~B ~B2 ~d>c|~B2 ~d>e ~f2 f<a|
e>A ~A2 ~A2 ~c<A|~c<A ~A2 c<e e>f|~a>e f/g/a ~e>a ~d<a|~c>a ~B<a A>A A||
e|f<a a>c c<e e>c|A>B ~c<A c<e e>f|f<a a>d d<f f>g|~a>e f/g/a ~c<a ~f>e|
f<a a>c c<e e>c|A>B ~c<A c<e e>f|~a>e f/g/a ~e>a ~d<a|"^as written"y~c<a ~B<a A>A A||

